X:48
T:Miss Ramsey (Jimmy Duffy's)
R:Fling
S:Seamus Quinn, Fermanagh (fiddle) and Gary Hastings, flute (Belfast).
D:From RTE Broadcast, Christmas 1996
H:JD was a box player from Derrygonelly (Eddie's brother).
M:4/4
Z:Bernie Stocks
K:D
|: D2DB AFF2 | AFdB AFF2 | D2DB AFFA |1 (3.B.c.d AF EGFE :|2 (3.B.c.d AF E3g ||
fddf ecce | dcdB AFF2 | fddf ecce | (3.B.c.d AF E2Eg | fddf ecce | 
dcdB AFF2 | (3.f.e.d (3.e.d.c (3.d.c.B A2 | (3.B.c.d (3.A.G.F E3F ||
<end>
<start>
